!!!OTL: 220. Voctor Faust.
!!!ODT: 1832
!!!ARE: Europa, Mitteleuropa, Deutschland, Unter - Franken
!!!SCT: E0220
!!!TXL: @@DE
!!!YEM: Copyright 1995, estate of Helmut Schaffrath.
**kern	**text
*ICvox	*
*M3/4	*
*k[f#]	*
*G:	*
!LO:TX:a:t=Ernst.	!
!LO:TX:a:t=Aus Unterfranken. 1832.	!
{8d	Hört
8d	ihr
=1	=1
4g	Chri-
4g	-ſten
12bL	mit
12aJ	.
12g	Ver-
=2	=2
8f#L	-lan-
8gJ	.
4a;}	-gen
{8f#	et-
8g	-was
=3	=3
4a	Neu-
4a	-es
8b	oh-
8cc#	-ne
=4	=4
2dd;}	Graus
{8d	wie
8d	die
=5	=5
4g	ei-
4g	-tle
12bL	Welt
12aJ	.
12g	thut
=6	=6
8f#L	pran-
8gJ	.
4a}	-gen
{8g	mit
8b/	Jo-
=7	=7
4dd	-hann,
4b	dem
!LO:TUP:a	!
12ddL	Doc-
12ccJ	.
12a	-tor
=8	=8
2g}	Fauſt.
==	==
!!!AGN: erzaehlendes Volks - Lied, Mahn -, Moral - Lied, Strafe, Faust - Sage
!!!ONB: ESAC (Essen Associative Code) Database: ERK1
!!!AMT: simple triple
!!!AIN: vox
!!!EED: Helmut Schaffrath
!!!EEV: 1.0
!!!GTL: Gottesgerichte und Hoellenstrafen (Mahnlieder)
!!!URL-scan: https://rosdok.uni-rostock.de/mcrviewer/recordIdentifier/rosdok_ppn745146120/iview2/phys_0719.iview2?x=-481.08577649558333&y=362.17981338175014&scale=0.48951656652201847&rotation=0&layout=singlePageLayout
!!!ENC: Anna Maria Matuszewska
!!!EEV: 2024/06/12
*-	*-
